; G-Code originally generated by Simplify3D(R) Version 4.1.2, based on proposed code by vector76
;M80 ; power supply on
G90
M82
M106 S0
M140 S60 ; custom bed temp
M190 S60 ; custom bed temp
M104 S200 T0 ; custom hot end temp
M109 S200 T0 ; custom hot end temp
G28 ; home all axes
;G29 ; probe ABL
M420 S1 ; restore ABL mesh 
; custom start gcode

; process Color1
; layer 1, Z = 0.200
T0
G92 E0.0000
G1 E-5 F2400 ; custom retraction
; skirt 1
G1 Z0.400 F1200
G1 X34.636 Y36.314 F6000
G1 Z0.200 F1200
G1 E0 F2400 ; custom un-retraction/prime
G92 E0.0000
G1 X36.314 Y34.636 E0.1023 F1800
G1 X63.686 Y34.636 E1.2822
G1 X65.364 Y36.314 E1.3844
G1 X65.364 Y63.686 E2.5643
G1 X63.686 Y65.364 E2.6666
G1 X36.314 Y65.364 E3.8465
G1 X34.636 Y63.686 E3.9487
G1 X34.636 Y36.314 E5.1286
G92 E0.0000
G1 E-5 F2400 ; custom retraction
G1 Z0.600 F1200
G1 X35.212 Y36.552 F6000
G1 Z0.200 F1200
G1 E0 F2400 ; custom un-retraction/prime
G92 E0.0000
G1 X36.552 Y35.212 E0.0817 F1800
G1 X63.448 Y35.212 E1.2410
G1 X64.788 Y36.552 E1.3227
G1 X64.788 Y63.448 E2.4820
G1 X63.448 Y64.788 E2.5637
G1 X36.552 Y64.788 E3.7231
G1 X35.212 Y63.448 E3.8048
G1 X35.212 Y36.552 E4.9641
G92 E0.0000
G1 E-5 F2400 ; custom retraction
; skirt 2
G1 Z0.400 F1200
G1 X34.636 Y156.314 F6000
G1 Z0.200 F1200
G1 E0 F2400 ; custom un-retraction/prime
G92 E0.0000
G1 X36.314 Y154.636 E0.1023 F1800
G1 X63.686 Y154.636 E1.2822
G1 X65.364 Y156.314 E1.3844
G1 X65.364 Y183.686 E2.5643
G1 X63.686 Y185.364 E2.6666
G1 X36.314 Y185.364 E3.8465
G1 X34.636 Y183.686 E3.9487
G1 X34.636 Y156.314 E5.1286
G92 E0.0000
G1 E-5 F2400 ; custom retraction
G1 Z0.600 F1200
G1 X35.212 Y156.552 F6000
G1 Z0.200 F1200
G1 E0 F2400 ; custom un-retraction/prime
G92 E0.0000
G1 X36.552 Y155.212 E0.0817 F1800
G1 X63.448 Y155.212 E1.2410
G1 X64.788 Y156.552 E1.3227
G1 X64.788 Y183.448 E2.4820
G1 X63.448 Y184.788 E2.5637
G1 X36.552 Y184.788 E3.7231
G1 X35.212 Y183.448 E3.8048
G1 X35.212 Y156.552 E4.9641
G92 E0.0000
G1 E-5 F2400 ; custom retraction
; skirt 3
G1 Z0.400 F1200
G1 X94.636 Y96.314 F6000
G1 Z0.200 F1200
G1 E0 F2400 ; custom un-retraction/prime
G92 E0.0000
G1 X96.314 Y94.636 E0.1023 F1800
G1 X123.686 Y94.636 E1.2822
G1 X125.364 Y96.314 E1.3844
G1 X125.364 Y123.686 E2.5643
G1 X123.686 Y125.364 E2.6666
G1 X96.314 Y125.364 E3.8465
G1 X94.636 Y123.686 E3.9487
G1 X94.636 Y96.314 E5.1286
G92 E0.0000
G1 E-5 F2400 ; custom retraction
G1 Z0.600 F1200
G1 X95.212 Y96.55199999999999 F6000
G1 Z0.200 F1200
G1 E0 F2400 ; custom un-retraction/prime
G92 E0.0000
G1 X96.55199999999999 Y95.212 E0.0817 F1800
G1 X123.44800000000001 Y95.212 E1.2410
G1 X124.788 Y96.55199999999999 E1.3227
G1 X124.788 Y123.44800000000001 E2.4820
G1 X123.44800000000001 Y124.788 E2.5637
G1 X96.55199999999999 Y124.788 E3.7231
G1 X95.212 Y123.44800000000001 E3.8048
G1 X95.212 Y96.55199999999999 E4.9641
G92 E0.0000
G1 E-5 F2400 ; custom retraction
; skirt 4
G1 Z0.400 F1200
G1 X154.636 Y36.314 F6000
G1 Z0.200 F1200
G1 E0 F2400 ; custom un-retraction/prime
G92 E0.0000
G1 X156.314 Y34.636 E0.1023 F1800
G1 X183.686 Y34.636 E1.2822
G1 X185.364 Y36.314 E1.3844
G1 X185.364 Y63.686 E2.5643
G1 X183.686 Y65.364 E2.6666
G1 X156.314 Y65.364 E3.8465
G1 X154.636 Y63.686 E3.9487
G1 X154.636 Y36.314 E5.1286
G92 E0.0000
G1 E-5 F2400 ; custom retraction
G1 Z0.600 F1200
G1 X155.212 Y36.552 F6000
G1 Z0.200 F1200
G1 E0 F2400 ; custom un-retraction/prime
G92 E0.0000
G1 X156.552 Y35.212 E0.0817 F1800
G1 X183.448 Y35.212 E1.2410
G1 X184.788 Y36.552 E1.3227
G1 X184.788 Y63.448 E2.4820
G1 X183.448 Y64.788 E2.5637
G1 X156.552 Y64.788 E3.7231
G1 X155.212 Y63.448 E3.8048
G1 X155.212 Y36.552 E4.9641
G92 E0.0000
G1 E-5 F2400 ; custom retraction
; skirt 5
G1 Z0.400 F1200
G1 X154.636 Y156.314 F6000
G1 Z0.200 F1200
G1 E0 F2400 ; custom un-retraction/prime
G92 E0.0000
G1 X156.314 Y154.636 E0.1023 F1800
G1 X183.686 Y154.636 E1.2822
G1 X185.364 Y156.314 E1.3844
G1 X185.364 Y183.686 E2.5643
G1 X183.686 Y185.364 E2.6666
G1 X156.314 Y185.364 E3.8465
G1 X154.636 Y183.686 E3.9487
G1 X154.636 Y156.314 E5.1286
G92 E0.0000
G1 E-5 F2400 ; custom retraction
G1 Z0.600 F1200
G1 X155.212 Y156.552 F6000
G1 Z0.200 F1200
G1 E0 F2400 ; custom un-retraction/prime
G92 E0.0000
G1 X156.552 Y155.212 E0.0817 F1800
G1 X183.448 Y155.212 E1.2410
G1 X184.788 Y156.552 E1.3227
G1 X184.788 Y183.448 E2.4820
G1 X183.448 Y184.788 E2.5637
G1 X156.552 Y184.788 E3.7231
G1 X155.212 Y183.448 E3.8048
G1 X155.212 Y156.552 E4.9641
G92 E0.0000
G1 E-5 F2400 ; custom retraction
; square 1
; feature inner perimeter
G1 Z0.600 F1200
G1 X37.788 Y37.788 F6000
G1 X37.788 Y38.202
G1 X38.94 Y38.94
G1 Z0.200 F1200
G1 E0 F2400 ; custom un-retraction/prime
G92 E0.0000
G1 X61.06 Y38.94 E0.9535 F1350
G1 X61.06 Y61.06 E1.9069
G1 X38.94 Y61.06 E2.8604
G1 X38.94 Y38.94 E3.8139
G1 X38.364 Y38.364 F6000
G92 E0.0000
G1 X61.636 Y38.364 E1.0031 F1350
G1 X61.636 Y61.636 E2.0063
G1 X38.364 Y61.636 E3.0094
G1 X38.364 Y38.364 E4.0125
; feature outer perimeter
G1 X37.788 Y37.788 F6000
G92 E0.0000
G1 X62.212 Y37.788 E1.0528 F900
G1 X62.212 Y62.212 E2.1056
G1 X37.788 Y62.212 E3.1584
G1 X37.788 Y37.788 E4.2111
; feature solid layer
G1 X60.465 Y39.286 F6000
G92 E0.0000
G1 X60.714 Y39.535 E0.0152 F1440
G1 X60.714 Y40.35 E0.0503
G1 X59.65 Y39.286 E0.1152
G1 X58.836 Y39.286 E0.1503
G1 X60.714 Y41.164 E0.2648
G1 X60.714 Y41.979 E0.2999
G1 X58.021 Y39.286 E0.4640
G1 X57.207 Y39.286 E0.4992
G1 X60.714 Y42.793 E0.7130
G1 X60.714 Y43.608 E0.7481
G1 X56.392 Y39.286 E1.0116
G1 X55.578 Y39.286 E1.0467
G1 X60.714 Y44.422 E1.3598
G1 X60.714 Y45.237 E1.3949
G1 X54.763 Y39.286 E1.7577
G1 X53.948 Y39.286 E1.7928
G1 X60.714 Y46.052 E2.2053
G1 X60.714 Y46.866 E2.2404
G1 X53.134 Y39.286 E2.7025
G1 X52.319 Y39.286 E2.7376
G1 X60.714 Y47.681 E3.2494
G1 X60.714 Y48.495 E3.2845
G1 X51.505 Y39.286 E3.8459
G1 X50.69 Y39.286 E3.8810
G1 X60.714 Y49.31 E4.4921
G1 X60.714 Y50.125 E4.5272
G1 X49.875 Y39.286 E5.1879
G1 X49.061 Y39.286 E5.2230
G1 X60.714 Y50.939 E5.9334
G1 X60.714 Y51.754 E5.9685
G1 X48.246 Y39.286 E6.7286
G1 X47.432 Y39.286 E6.7637
G1 X60.714 Y52.568 E7.5734
G1 X60.714 Y53.383 E7.6085
G1 X46.617 Y39.286 E8.4679
G1 X45.802 Y39.286 E8.5030
G1 X60.714 Y54.198 E9.4120
G1 X60.714 Y55.012 E9.4471
G1 X44.988 Y39.286 E10.4058
G1 X44.173 Y39.286 E10.4409
G1 X60.714 Y55.827 E11.4492
G1 X60.714 Y56.641 E11.4844
G1 X43.359 Y39.286 E12.5424
G1 X42.544 Y39.286 E12.5775
G1 X60.714 Y57.456 E13.6851
G1 X60.714 Y58.27 E13.7202
G1 X41.73 Y39.286 E14.8775
G1 X40.915 Y39.286 E14.9126
G1 X60.714 Y59.085 E16.1196
G1 X60.714 Y59.9 E16.1547
G1 X40.1 Y39.286 E17.4113
G1 X39.286 Y39.286 E17.4464
G1 X60.714 Y60.714 E18.7527
G1 X59.9 Y60.714 E18.7878
G1 X39.286 Y40.1 E20.0445
G1 X39.286 Y40.915 E20.0796
G1 X59.085 Y60.714 E21.2865
G1 X58.27 Y60.714 E21.3216
G1 X39.286 Y41.73 E22.4789
G1 X39.286 Y42.544 E22.5141
G1 X57.456 Y60.714 E23.6217
G1 X56.641 Y60.714 E23.6568
G1 X39.286 Y43.359 E24.7148
G1 X39.286 Y44.173 E24.7499
G1 X55.827 Y60.714 E25.7583
G1 X55.012 Y60.714 E25.7934
G1 X39.286 Y44.988 E26.7520
G1 X39.286 Y45.802 E26.7872
G1 X54.198 Y60.714 E27.6962
G1 X53.383 Y60.714 E27.7313
G1 X39.286 Y46.617 E28.5907
G1 X39.286 Y47.432 E28.6258
G1 X52.568 Y60.714 E29.4355
G1 X51.754 Y60.714 E29.4706
G1 X39.286 Y48.246 E30.2306
G1 X39.286 Y49.061 E30.2658
G1 X50.939 Y60.714 E30.9761
G1 X50.125 Y60.714 E31.0113
G1 X39.286 Y49.875 E31.6720
G1 X39.286 Y50.69 E31.7071
G1 X49.31 Y60.714 E32.3182
G1 X48.495 Y60.714 E32.3533
G1 X39.286 Y51.505 E32.9147
G1 X39.286 Y52.319 E32.9498
G1 X47.681 Y60.714 E33.4616
G1 X46.866 Y60.714 E33.4967
G1 X39.286 Y53.134 E33.9588
G1 X39.286 Y53.948 E33.9939
G1 X46.052 Y60.714 E34.4064
G1 X45.237 Y60.714 E34.4415
G1 X39.286 Y54.763 E34.8043
G1 X39.286 Y55.577 E34.8394
G1 X44.422 Y60.714 E35.1525
G1 X43.608 Y60.714 E35.1876
G1 X39.286 Y56.392 E35.4511
G1 X39.286 Y57.207 E35.4862
G1 X42.793 Y60.714 E35.7000
G1 X41.979 Y60.714 E35.7352
G1 X39.286 Y58.021 E35.8993
G1 X39.286 Y58.836 E35.9344
G1 X41.164 Y60.714 E36.0489
G1 X40.35 Y60.714 E36.0841
G1 X39.286 Y59.65 E36.1489
G1 X39.286 Y60.465 E36.1840
G1 X39.535 Y60.714 E36.1992
G92 E0.0000
G1 E-5 F2400 ; custom retraction
; square 2
; feature inner perimeter
G1 Z0.600 F1200
G1 X37.788 Y157.788 F6000
G1 X37.788 Y158.202
G1 X38.94 Y158.94
G1 Z0.200 F1200
G1 E0 F2400 ; custom un-retraction/prime
G92 E0.0000
G1 X61.06 Y158.94 E0.9535 F1350
G1 X61.06 Y181.06 E1.9069
G1 X38.94 Y181.06 E2.8604
G1 X38.94 Y158.94 E3.8139
G1 X38.364 Y158.364 F6000
G92 E0.0000
G1 X61.636 Y158.364 E1.0031 F1350
G1 X61.636 Y181.636 E2.0063
G1 X38.364 Y181.636 E3.0094
G1 X38.364 Y158.364 E4.0125
; feature outer perimeter
G1 X37.788 Y157.788 F6000
G92 E0.0000
G1 X62.212 Y157.788 E1.0528 F900
G1 X62.212 Y182.212 E2.1056
G1 X37.788 Y182.212 E3.1584
G1 X37.788 Y157.788 E4.2111
; feature solid layer
G1 X60.465 Y159.286 F6000
G92 E0.0000
G1 X60.714 Y159.535 E0.0152 F1440
G1 X60.714 Y160.35 E0.0503
G1 X59.65 Y159.286 E0.1152
G1 X58.836 Y159.286 E0.1503
G1 X60.714 Y161.164 E0.2648
G1 X60.714 Y161.97899999999998 E0.2999
G1 X58.021 Y159.286 E0.4640
G1 X57.207 Y159.286 E0.4992
G1 X60.714 Y162.793 E0.7130
G1 X60.714 Y163.608 E0.7481
G1 X56.392 Y159.286 E1.0116
G1 X55.578 Y159.286 E1.0467
G1 X60.714 Y164.422 E1.3598
G1 X60.714 Y165.237 E1.3949
G1 X54.763 Y159.286 E1.7577
G1 X53.948 Y159.286 E1.7928
G1 X60.714 Y166.052 E2.2053
G1 X60.714 Y166.86599999999999 E2.2404
G1 X53.134 Y159.286 E2.7025
G1 X52.319 Y159.286 E2.7376
G1 X60.714 Y167.68099999999998 E3.2494
G1 X60.714 Y168.495 E3.2845
G1 X51.505 Y159.286 E3.8459
G1 X50.69 Y159.286 E3.8810
G1 X60.714 Y169.31 E4.4921
G1 X60.714 Y170.125 E4.5272
G1 X49.875 Y159.286 E5.1879
G1 X49.061 Y159.286 E5.2230
G1 X60.714 Y170.939 E5.9334
G1 X60.714 Y171.754 E5.9685
G1 X48.246 Y159.286 E6.7286
G1 X47.432 Y159.286 E6.7637
G1 X60.714 Y172.56799999999998 E7.5734
G1 X60.714 Y173.383 E7.6085
G1 X46.617 Y159.286 E8.4679
G1 X45.802 Y159.286 E8.5030
G1 X60.714 Y174.198 E9.4120
G1 X60.714 Y175.012 E9.4471
G1 X44.988 Y159.286 E10.4058
G1 X44.173 Y159.286 E10.4409
G1 X60.714 Y175.827 E11.4492
G1 X60.714 Y176.641 E11.4844
G1 X43.359 Y159.286 E12.5424
G1 X42.544 Y159.286 E12.5775
G1 X60.714 Y177.45600000000002 E13.6851
G1 X60.714 Y178.27 E13.7202
G1 X41.73 Y159.286 E14.8775
G1 X40.915 Y159.286 E14.9126
G1 X60.714 Y179.085 E16.1196
G1 X60.714 Y179.9 E16.1547
G1 X40.1 Y159.286 E17.4113
G1 X39.286 Y159.286 E17.4464
G1 X60.714 Y180.714 E18.7527
G1 X59.9 Y180.714 E18.7878
G1 X39.286 Y160.1 E20.0445
G1 X39.286 Y160.915 E20.0796
G1 X59.085 Y180.714 E21.2865
G1 X58.27 Y180.714 E21.3216
G1 X39.286 Y161.73 E22.4789
G1 X39.286 Y162.54399999999998 E22.5141
G1 X57.456 Y180.714 E23.6217
G1 X56.641 Y180.714 E23.6568
G1 X39.286 Y163.359 E24.7148
G1 X39.286 Y164.173 E24.7499
G1 X55.827 Y180.714 E25.7583
G1 X55.012 Y180.714 E25.7934
G1 X39.286 Y164.988 E26.7520
G1 X39.286 Y165.802 E26.7872
G1 X54.198 Y180.714 E27.6962
G1 X53.383 Y180.714 E27.7313
G1 X39.286 Y166.617 E28.5907
G1 X39.286 Y167.43200000000002 E28.6258
G1 X52.568 Y180.714 E29.4355
G1 X51.754 Y180.714 E29.4706
G1 X39.286 Y168.246 E30.2306
G1 X39.286 Y169.061 E30.2658
G1 X50.939 Y180.714 E30.9761
G1 X50.125 Y180.714 E31.0113
G1 X39.286 Y169.875 E31.6720
G1 X39.286 Y170.69 E31.7071
G1 X49.31 Y180.714 E32.3182
G1 X48.495 Y180.714 E32.3533
G1 X39.286 Y171.505 E32.9147
G1 X39.286 Y172.31900000000002 E32.9498
G1 X47.681 Y180.714 E33.4616
G1 X46.866 Y180.714 E33.4967
G1 X39.286 Y173.13400000000001 E33.9588
G1 X39.286 Y173.948 E33.9939
G1 X46.052 Y180.714 E34.4064
G1 X45.237 Y180.714 E34.4415
G1 X39.286 Y174.763 E34.8043
G1 X39.286 Y175.577 E34.8394
G1 X44.422 Y180.714 E35.1525
G1 X43.608 Y180.714 E35.1876
G1 X39.286 Y176.392 E35.4511
G1 X39.286 Y177.207 E35.4862
G1 X42.793 Y180.714 E35.7000
G1 X41.979 Y180.714 E35.7352
G1 X39.286 Y178.02100000000002 E35.8993
G1 X39.286 Y178.836 E35.9344
G1 X41.164 Y180.714 E36.0489
G1 X40.35 Y180.714 E36.0841
G1 X39.286 Y179.65 E36.1489
G1 X39.286 Y180.465 E36.1840
G1 X39.535 Y180.714 E36.1992
G92 E0.0000
G1 E-5 F2400 ; custom retraction
; square 3
; feature inner perimeter
G1 Z0.600 F1200
G1 X97.788 Y97.788 F6000
G1 X97.788 Y98.202
G1 X98.94 Y98.94
G1 Z0.200 F1200
G1 E0 F2400 ; custom un-retraction/prime
G92 E0.0000
G1 X121.06 Y98.94 E0.9535 F1350
G1 X121.06 Y121.06 E1.9069
G1 X98.94 Y121.06 E2.8604
G1 X98.94 Y98.94 E3.8139
G1 X98.364 Y98.364 F6000
G92 E0.0000
G1 X121.636 Y98.364 E1.0031 F1350
G1 X121.636 Y121.636 E2.0063
G1 X98.364 Y121.636 E3.0094
G1 X98.364 Y98.364 E4.0125
; feature outer perimeter
G1 X97.788 Y97.788 F6000
G92 E0.0000
G1 X122.212 Y97.788 E1.0528 F900
G1 X122.212 Y122.212 E2.1056
G1 X97.788 Y122.212 E3.1584
G1 X97.788 Y97.788 E4.2111
; feature solid layer
G1 X120.465 Y99.286 F6000
G92 E0.0000
G1 X120.714 Y99.535 E0.0152 F1440
G1 X120.714 Y100.35 E0.0503
G1 X119.65 Y99.286 E0.1152
G1 X118.836 Y99.286 E0.1503
G1 X120.714 Y101.164 E0.2648
G1 X120.714 Y101.979 E0.2999
G1 X118.021 Y99.286 E0.4640
G1 X117.207 Y99.286 E0.4992
G1 X120.714 Y102.793 E0.7130
G1 X120.714 Y103.608 E0.7481
G1 X116.392 Y99.286 E1.0116
G1 X115.578 Y99.286 E1.0467
G1 X120.714 Y104.422 E1.3598
G1 X120.714 Y105.237 E1.3949
G1 X114.763 Y99.286 E1.7577
G1 X113.94800000000001 Y99.286 E1.7928
G1 X120.714 Y106.05199999999999 E2.2053
G1 X120.714 Y106.866 E2.2404
G1 X113.134 Y99.286 E2.7025
G1 X112.319 Y99.286 E2.7376
G1 X120.714 Y107.681 E3.2494
G1 X120.714 Y108.495 E3.2845
G1 X111.505 Y99.286 E3.8459
G1 X110.69 Y99.286 E3.8810
G1 X120.714 Y109.31 E4.4921
G1 X120.714 Y110.125 E4.5272
G1 X109.875 Y99.286 E5.1879
G1 X109.061 Y99.286 E5.2230
G1 X120.714 Y110.939 E5.9334
G1 X120.714 Y111.75399999999999 E5.9685
G1 X108.24600000000001 Y99.286 E6.7286
G1 X107.432 Y99.286 E6.7637
G1 X120.714 Y112.568 E7.5734
G1 X120.714 Y113.38300000000001 E7.6085
G1 X106.61699999999999 Y99.286 E8.4679
G1 X105.80199999999999 Y99.286 E8.5030
G1 X120.714 Y114.19800000000001 E9.4120
G1 X120.714 Y115.012 E9.4471
G1 X104.988 Y99.286 E10.4058
G1 X104.173 Y99.286 E10.4409
G1 X120.714 Y115.827 E11.4492
G1 X120.714 Y116.64099999999999 E11.4844
G1 X103.35900000000001 Y99.286 E12.5424
G1 X102.544 Y99.286 E12.5775
G1 X120.714 Y117.456 E13.6851
G1 X120.714 Y118.27000000000001 E13.7202
G1 X101.72999999999999 Y99.286 E14.8775
G1 X100.91499999999999 Y99.286 E14.9126
G1 X120.714 Y119.08500000000001 E16.1196
G1 X120.714 Y119.9 E16.1547
G1 X100.1 Y99.286 E17.4113
G1 X99.286 Y99.286 E17.4464
G1 X120.714 Y120.714 E18.7527
G1 X119.9 Y120.714 E18.7878
G1 X99.286 Y100.1 E20.0445
G1 X99.286 Y100.91499999999999 E20.0796
G1 X119.08500000000001 Y120.714 E21.2865
G1 X118.27000000000001 Y120.714 E21.3216
G1 X99.286 Y101.72999999999999 E22.4789
G1 X99.286 Y102.544 E22.5141
G1 X117.456 Y120.714 E23.6217
G1 X116.64099999999999 Y120.714 E23.6568
G1 X99.286 Y103.35900000000001 E24.7148
G1 X99.286 Y104.173 E24.7499
G1 X115.827 Y120.714 E25.7583
G1 X115.012 Y120.714 E25.7934
G1 X99.286 Y104.988 E26.7520
G1 X99.286 Y105.80199999999999 E26.7872
G1 X114.19800000000001 Y120.714 E27.6962
G1 X113.38300000000001 Y120.714 E27.7313
G1 X99.286 Y106.61699999999999 E28.5907
G1 X99.286 Y107.432 E28.6258
G1 X112.568 Y120.714 E29.4355
G1 X111.75399999999999 Y120.714 E29.4706
G1 X99.286 Y108.24600000000001 E30.2306
G1 X99.286 Y109.061 E30.2658
G1 X110.939 Y120.714 E30.9761
G1 X110.125 Y120.714 E31.0113
G1 X99.286 Y109.875 E31.6720
G1 X99.286 Y110.69 E31.7071
G1 X109.31 Y120.714 E32.3182
G1 X108.495 Y120.714 E32.3533
G1 X99.286 Y111.505 E32.9147
G1 X99.286 Y112.319 E32.9498
G1 X107.681 Y120.714 E33.4616
G1 X106.866 Y120.714 E33.4967
G1 X99.286 Y113.134 E33.9588
G1 X99.286 Y113.94800000000001 E33.9939
G1 X106.05199999999999 Y120.714 E34.4064
G1 X105.237 Y120.714 E34.4415
G1 X99.286 Y114.763 E34.8043
G1 X99.286 Y115.577 E34.8394
G1 X104.422 Y120.714 E35.1525
G1 X103.608 Y120.714 E35.1876
G1 X99.286 Y116.392 E35.4511
G1 X99.286 Y117.207 E35.4862
G1 X102.793 Y120.714 E35.7000
G1 X101.979 Y120.714 E35.7352
G1 X99.286 Y118.021 E35.8993
G1 X99.286 Y118.836 E35.9344
G1 X101.164 Y120.714 E36.0489
G1 X100.35 Y120.714 E36.0841
G1 X99.286 Y119.65 E36.1489
G1 X99.286 Y120.465 E36.1840
G1 X99.535 Y120.714 E36.1992
G92 E0.0000
G1 E-5 F2400 ; custom retraction
; square 4
; feature inner perimeter
G1 Z0.600 F1200
G1 X157.788 Y37.788 F6000
G1 X157.788 Y38.202
G1 X158.94 Y38.94
G1 Z0.200 F1200
G1 E0 F2400 ; custom un-retraction/prime
G92 E0.0000
G1 X181.06 Y38.94 E0.9535 F1350
G1 X181.06 Y61.06 E1.9069
G1 X158.94 Y61.06 E2.8604
G1 X158.94 Y38.94 E3.8139
G1 X158.364 Y38.364 F6000
G92 E0.0000
G1 X181.636 Y38.364 E1.0031 F1350
G1 X181.636 Y61.636 E2.0063
G1 X158.364 Y61.636 E3.0094
G1 X158.364 Y38.364 E4.0125
; feature outer perimeter
G1 X157.788 Y37.788 F6000
G92 E0.0000
G1 X182.212 Y37.788 E1.0528 F900
G1 X182.212 Y62.212 E2.1056
G1 X157.788 Y62.212 E3.1584
G1 X157.788 Y37.788 E4.2111
; feature solid layer
G1 X180.465 Y39.286 F6000
G92 E0.0000
G1 X180.714 Y39.535 E0.0152 F1440
G1 X180.714 Y40.35 E0.0503
G1 X179.65 Y39.286 E0.1152
G1 X178.836 Y39.286 E0.1503
G1 X180.714 Y41.164 E0.2648
G1 X180.714 Y41.979 E0.2999
G1 X178.02100000000002 Y39.286 E0.4640
G1 X177.207 Y39.286 E0.4992
G1 X180.714 Y42.793 E0.7130
G1 X180.714 Y43.608 E0.7481
G1 X176.392 Y39.286 E1.0116
G1 X175.578 Y39.286 E1.0467
G1 X180.714 Y44.422 E1.3598
G1 X180.714 Y45.237 E1.3949
G1 X174.763 Y39.286 E1.7577
G1 X173.948 Y39.286 E1.7928
G1 X180.714 Y46.052 E2.2053
G1 X180.714 Y46.866 E2.2404
G1 X173.13400000000001 Y39.286 E2.7025
G1 X172.31900000000002 Y39.286 E2.7376
G1 X180.714 Y47.681 E3.2494
G1 X180.714 Y48.495 E3.2845
G1 X171.505 Y39.286 E3.8459
G1 X170.69 Y39.286 E3.8810
G1 X180.714 Y49.31 E4.4921
G1 X180.714 Y50.125 E4.5272
G1 X169.875 Y39.286 E5.1879
G1 X169.061 Y39.286 E5.2230
G1 X180.714 Y50.939 E5.9334
G1 X180.714 Y51.754 E5.9685
G1 X168.246 Y39.286 E6.7286
G1 X167.43200000000002 Y39.286 E6.7637
G1 X180.714 Y52.568 E7.5734
G1 X180.714 Y53.383 E7.6085
G1 X166.617 Y39.286 E8.4679
G1 X165.802 Y39.286 E8.5030
G1 X180.714 Y54.198 E9.4120
G1 X180.714 Y55.012 E9.4471
G1 X164.988 Y39.286 E10.4058
G1 X164.173 Y39.286 E10.4409
G1 X180.714 Y55.827 E11.4492
G1 X180.714 Y56.641 E11.4844
G1 X163.359 Y39.286 E12.5424
G1 X162.54399999999998 Y39.286 E12.5775
G1 X180.714 Y57.456 E13.6851
G1 X180.714 Y58.27 E13.7202
G1 X161.73 Y39.286 E14.8775
G1 X160.915 Y39.286 E14.9126
G1 X180.714 Y59.085 E16.1196
G1 X180.714 Y59.9 E16.1547
G1 X160.1 Y39.286 E17.4113
G1 X159.286 Y39.286 E17.4464
G1 X180.714 Y60.714 E18.7527
G1 X179.9 Y60.714 E18.7878
G1 X159.286 Y40.1 E20.0445
G1 X159.286 Y40.915 E20.0796
G1 X179.085 Y60.714 E21.2865
G1 X178.27 Y60.714 E21.3216
G1 X159.286 Y41.73 E22.4789
G1 X159.286 Y42.544 E22.5141
G1 X177.45600000000002 Y60.714 E23.6217
G1 X176.641 Y60.714 E23.6568
G1 X159.286 Y43.359 E24.7148
G1 X159.286 Y44.173 E24.7499
G1 X175.827 Y60.714 E25.7583
G1 X175.012 Y60.714 E25.7934
G1 X159.286 Y44.988 E26.7520
G1 X159.286 Y45.802 E26.7872
G1 X174.198 Y60.714 E27.6962
G1 X173.383 Y60.714 E27.7313
G1 X159.286 Y46.617 E28.5907
G1 X159.286 Y47.432 E28.6258
G1 X172.56799999999998 Y60.714 E29.4355
G1 X171.754 Y60.714 E29.4706
G1 X159.286 Y48.246 E30.2306
G1 X159.286 Y49.061 E30.2658
G1 X170.939 Y60.714 E30.9761
G1 X170.125 Y60.714 E31.0113
G1 X159.286 Y49.875 E31.6720
G1 X159.286 Y50.69 E31.7071
G1 X169.31 Y60.714 E32.3182
G1 X168.495 Y60.714 E32.3533
G1 X159.286 Y51.505 E32.9147
G1 X159.286 Y52.319 E32.9498
G1 X167.68099999999998 Y60.714 E33.4616
G1 X166.86599999999999 Y60.714 E33.4967
G1 X159.286 Y53.134 E33.9588
G1 X159.286 Y53.948 E33.9939
G1 X166.052 Y60.714 E34.4064
G1 X165.237 Y60.714 E34.4415
G1 X159.286 Y54.763 E34.8043
G1 X159.286 Y55.577 E34.8394
G1 X164.422 Y60.714 E35.1525
G1 X163.608 Y60.714 E35.1876
G1 X159.286 Y56.392 E35.4511
G1 X159.286 Y57.207 E35.4862
G1 X162.793 Y60.714 E35.7000
G1 X161.97899999999998 Y60.714 E35.7352
G1 X159.286 Y58.021 E35.8993
G1 X159.286 Y58.836 E35.9344
G1 X161.164 Y60.714 E36.0489
G1 X160.35 Y60.714 E36.0841
G1 X159.286 Y59.65 E36.1489
G1 X159.286 Y60.465 E36.1840
G1 X159.535 Y60.714 E36.1992
G92 E0.0000
G1 E-5 F2400 ; custom retraction
; square 5
; feature inner perimeter
G1 Z0.600 F1200
G1 X157.788 Y157.788 F6000
G1 X157.788 Y158.202
G1 X158.94 Y158.94
G1 Z0.200 F1200
G1 E0 F2400 ; custom un-retraction/prime
G92 E0.0000
G1 X181.06 Y158.94 E0.9535 F1350
G1 X181.06 Y181.06 E1.9069
G1 X158.94 Y181.06 E2.8604
G1 X158.94 Y158.94 E3.8139
G1 X158.364 Y158.364 F6000
G92 E0.0000
G1 X181.636 Y158.364 E1.0031 F1350
G1 X181.636 Y181.636 E2.0063
G1 X158.364 Y181.636 E3.0094
G1 X158.364 Y158.364 E4.0125
; feature outer perimeter
G1 X157.788 Y157.788 F6000
G92 E0.0000
G1 X182.212 Y157.788 E1.0528 F900
G1 X182.212 Y182.212 E2.1056
G1 X157.788 Y182.212 E3.1584
G1 X157.788 Y157.788 E4.2111
; feature solid layer
G1 X180.465 Y159.286 F6000
G92 E0.0000
G1 X180.714 Y159.535 E0.0152 F1440
G1 X180.714 Y160.35 E0.0503
G1 X179.65 Y159.286 E0.1152
G1 X178.836 Y159.286 E0.1503
G1 X180.714 Y161.164 E0.2648
G1 X180.714 Y161.97899999999998 E0.2999
G1 X178.02100000000002 Y159.286 E0.4640
G1 X177.207 Y159.286 E0.4992
G1 X180.714 Y162.793 E0.7130
G1 X180.714 Y163.608 E0.7481
G1 X176.392 Y159.286 E1.0116
G1 X175.578 Y159.286 E1.0467
G1 X180.714 Y164.422 E1.3598
G1 X180.714 Y165.237 E1.3949
G1 X174.763 Y159.286 E1.7577
G1 X173.948 Y159.286 E1.7928
G1 X180.714 Y166.052 E2.2053
G1 X180.714 Y166.86599999999999 E2.2404
G1 X173.13400000000001 Y159.286 E2.7025
G1 X172.31900000000002 Y159.286 E2.7376
G1 X180.714 Y167.68099999999998 E3.2494
G1 X180.714 Y168.495 E3.2845
G1 X171.505 Y159.286 E3.8459
G1 X170.69 Y159.286 E3.8810
G1 X180.714 Y169.31 E4.4921
G1 X180.714 Y170.125 E4.5272
G1 X169.875 Y159.286 E5.1879
G1 X169.061 Y159.286 E5.2230
G1 X180.714 Y170.939 E5.9334
G1 X180.714 Y171.754 E5.9685
G1 X168.246 Y159.286 E6.7286
G1 X167.43200000000002 Y159.286 E6.7637
G1 X180.714 Y172.56799999999998 E7.5734
G1 X180.714 Y173.383 E7.6085
G1 X166.617 Y159.286 E8.4679
G1 X165.802 Y159.286 E8.5030
G1 X180.714 Y174.198 E9.4120
G1 X180.714 Y175.012 E9.4471
G1 X164.988 Y159.286 E10.4058
G1 X164.173 Y159.286 E10.4409
G1 X180.714 Y175.827 E11.4492
G1 X180.714 Y176.641 E11.4844
G1 X163.359 Y159.286 E12.5424
G1 X162.54399999999998 Y159.286 E12.5775
G1 X180.714 Y177.45600000000002 E13.6851
G1 X180.714 Y178.27 E13.7202
G1 X161.73 Y159.286 E14.8775
G1 X160.915 Y159.286 E14.9126
G1 X180.714 Y179.085 E16.1196
G1 X180.714 Y179.9 E16.1547
G1 X160.1 Y159.286 E17.4113
G1 X159.286 Y159.286 E17.4464
G1 X180.714 Y180.714 E18.7527
G1 X179.9 Y180.714 E18.7878
G1 X159.286 Y160.1 E20.0445
G1 X159.286 Y160.915 E20.0796
G1 X179.085 Y180.714 E21.2865
G1 X178.27 Y180.714 E21.3216
G1 X159.286 Y161.73 E22.4789
G1 X159.286 Y162.54399999999998 E22.5141
G1 X177.45600000000002 Y180.714 E23.6217
G1 X176.641 Y180.714 E23.6568
G1 X159.286 Y163.359 E24.7148
G1 X159.286 Y164.173 E24.7499
G1 X175.827 Y180.714 E25.7583
G1 X175.012 Y180.714 E25.7934
G1 X159.286 Y164.988 E26.7520
G1 X159.286 Y165.802 E26.7872
G1 X174.198 Y180.714 E27.6962
G1 X173.383 Y180.714 E27.7313
G1 X159.286 Y166.617 E28.5907
G1 X159.286 Y167.43200000000002 E28.6258
G1 X172.56799999999998 Y180.714 E29.4355
G1 X171.754 Y180.714 E29.4706
G1 X159.286 Y168.246 E30.2306
G1 X159.286 Y169.061 E30.2658
G1 X170.939 Y180.714 E30.9761
G1 X170.125 Y180.714 E31.0113
G1 X159.286 Y169.875 E31.6720
G1 X159.286 Y170.69 E31.7071
G1 X169.31 Y180.714 E32.3182
G1 X168.495 Y180.714 E32.3533
G1 X159.286 Y171.505 E32.9147
G1 X159.286 Y172.31900000000002 E32.9498
G1 X167.68099999999998 Y180.714 E33.4616
G1 X166.86599999999999 Y180.714 E33.4967
G1 X159.286 Y173.13400000000001 E33.9588
G1 X159.286 Y173.948 E33.9939
G1 X166.052 Y180.714 E34.4064
G1 X165.237 Y180.714 E34.4415
G1 X159.286 Y174.763 E34.8043
G1 X159.286 Y175.577 E34.8394
G1 X164.422 Y180.714 E35.1525
G1 X163.608 Y180.714 E35.1876
G1 X159.286 Y176.392 E35.4511
G1 X159.286 Y177.207 E35.4862
G1 X162.793 Y180.714 E35.7000
G1 X161.97899999999998 Y180.714 E35.7352
G1 X159.286 Y178.02100000000002 E35.8993
G1 X159.286 Y178.836 E35.9344
G1 X161.164 Y180.714 E36.0489
G1 X160.35 Y180.714 E36.0841
G1 X159.286 Y179.65 E36.1489
G1 X159.286 Y180.465 E36.1840
G1 X159.535 Y180.714 E36.1992
G92 E0.0000
G1 E-5 F2400 ; custom retraction
; layer end
G28 X0 ; home X axis
M106 S0 ; turn off cooling fan
M104 S0 ; turn off extruder
M140 S0 ; turn off bed
M84 ; disable motors
